packages/astro-components-stencil/src/icons/wb-auto.svg

<svg xmlns="http://www.w3.org/2000/svg" viewBox="0 0 24 24"><g xmlns="http://www.w3.org/2000/svg" id="wb-auto" fill-rule="nonzero">
            <path d="M6.85 12.65h2.3L8 9l-1.15 3.65zM22.72 7c-.42 0-.77.3-.85.7l-1.07 5.59-1.31-5.51c-.11-.46-.52-.78-.99-.78s-.88.32-.98.78l-1.31 5.51-1.07-5.59c-.08-.4-.44-.7-.85-.7-.01 0-.03.01-.04.01A7.998 7.998 0 000 12c0 4.42 3.58 8 8 8 3.17 0 5.9-1.85 7.2-4.52a1.104 1.104 0 002.01-.32L18.5 9.9l1.29 5.26c.12.49.57.84 1.07.84.52 0 .96-.36 1.08-.86l1.61-7.08A.859.859 0 0022.72 7zm-11.79 9c-.38 0-.72-.24-.84-.6L9.6 14H6.4l-.49 1.4c-.13.36-.46.6-.84.6a.888.888 0 01-.84-1.19l2.44-6.86C6.87 7.38 7.4 7 8 7c.6 0 1.13.38 1.34.94l2.44 6.86c.2.59-.23 1.2-.85 1.2z"/>
        </g></svg>

<svg width="24" height="24" viewBox="0 0 24 24" fill="none" xmlns="http://www.w3.org/2000/svg">
<path fill-rule="evenodd" clip-rule="evenodd" d="M22.72 7C22.3 7 21.95 7.3 21.87 7.7L20.8 13.29L19.49 7.78C19.38 7.32 18.97 7 18.5 7C18.03 7 17.62 7.32 17.52 7.78L16.21 13.29L15.14 7.7C15.06 7.3 14.7 7 14.29 7C14.285 7 14.2775 7.0025 14.27 7.005C14.2625 7.0075 14.255 7.01 14.25 7.01C12.78 5.18 10.53 4 8 4C3.58 4 0 7.58 0 12C0 16.42 3.58 20 8 20C11.17 20 13.9 18.15 15.2 15.48C15.4 15.8 15.75 16 16.14 16C16.65 16 17.09 15.65 17.21 15.16L18.5 9.9L19.79 15.16C19.91 15.65 20.36 16 20.86 16C21.38 16 21.82 15.64 21.94 15.14L23.55 8.06C23.68 7.52 23.27 7 22.72 7ZM9.15 12.65L8 9L6.85 12.65H9.15ZM10.09 15.4C10.21 15.76 10.55 16 10.93 16C11.55 16 11.98 15.39 11.78 14.8L9.34 7.94C9.13 7.38 8.6 7 8 7C7.4 7 6.87 7.38 6.67 7.95L4.23 14.81C4.02 15.39 4.45 16 5.07 16C5.45 16 5.78 15.76 5.91 15.4L6.4 14H9.6L10.09 15.4Z" fill="black"/>
</svg>
